X: 3
T:LE CANAL EN OCTOBRE
M:4/4
L:1/8
Q:1/4=60
K:C 
|:Gc/2d/2e3/2f/2 f/2e/2d/2c/2e3/2f/2|f/2e/2d/2c/2A/2B/2c/2e/2|1d3/2c/2B/
2c/2A/2B/2:|2d3/2c/2c2:|!
c/2G/2c/2d/2g3/2f/2 f/2e/2d/2c/2g3/2f/2|f/2e/2d/2c/2A/2B/2c/2e/2 d3/2c/2
B/2c/2A/2B/2|Ge/2f/2g3/2f/2 f/2e/2d/2c/2g3/2f/2|f/2e/2d/2c/2A/2B/2c/2e/2
 d3/2c/2c3|
g/2g/2g3/2f/2f/2e/2 d/2c/2g3/2f/2f/2e/2|d/2c/2A/2B/2c/2e/2d3/2c/2B/2c/2A
/2B/2G|e/2 f<gf/2f/2e/2 d/2 c<gf/2f/2e/2|d/2c/2A/2B/2c/2e/2d3/2c/2c3|
